X: 12
T: No_109_Song_While_Tiswin_is_Distributed.krn
N: Derived from No_109_Song_While_Tiswin_is_Distributed.krn
%%abc-version 2.0
%%abcx-abcm2ps-target-version 5.9.1 (29 Sep 2008)
%%abc-creator hum2abc beta
%%abcx-conversion-date 2019/03/15 08:37:56
%%humdrum-veritas 3126183088
%%humdrum-veritas-data 4257385479
%%linebreak <none>
%%barnumbers 0
L: 1/4
M: 3/4
K: B clef=bass
[K:clef=bass][M:3/4]F,2C, | 
B,,B,,B,, ||  
[M:2/4](E,C,) | 
C,2 | 
B,,z | 
C,C, | 
E,B,, | 
(G,,F,,3//)B,,// | 
B,,2 ||  
[M:3/4]B,,zF,, | 
C,3/B,,/C, ||  
[M:2/4]C,/B,,/B,, | 
G,,/F,,/F,, | 
B,,2- | 
B,,B,, ||  
[M:3/4]B,,B,,3/F,,/ ||  
[M:2/4]B,,G,, | 
E,,/C,,/C,, | 
F,,2 | 
F,,2 | 
F,,z |]  



